**kern	**kern	**kern	**kern
*staff3	*staff4	*staff1	*staff2
*clefF4	*clefF4	*clefG2	*clefG2
*k[f#c#]	*k[f#c#]	*k[f#c#]	*k[f#c#]
*M2/4	*M2/4	*M2/4	*M2/4
*D:	*D:	*D:	*D:
=-	=-	=-	=-
2r	12r	(4c# 4e	2A
.	(12AAL	.	.
.	12C#'J)	.	.
.	12r	4e 4a	.
.	(12GGL	.	.
.	12C#'J)	.	.
=333	=333	=333	=333
2r	12r	4d) 4f#	4A
.	(12FF#L	.	.
.	12D'J)	.	.
.	8DD' 8AA'	12r	4r
.	.	(12ff#L	.
.	8r	.	.
.	.	12dd'J)	.
=334	=334	=334	=334
2r	8CC#' 8AA'	12r	2r
.	.	(12ggL	.
.	8r	.	.
.	.	12ee'J)	.
.	8AAA' 8AA'	12r	.
.	.	(12gL	.
.	8r	.	.
.	.	12e'J)	.
=335	=335	=335	=335
2r	8DD'L 8D'	12r	2r
.	.	(12f#L	.
.	8DD'J 8D'	.	.
.	.	12d'J)	.
.	4r	8a'L 8aa'	.
.	.	8a'J 8aa'	.
=336	=336	=336	=336
2r	12r	(4c# 4e	2A
.	(12AAL	.	.
.	12C#'J)	.	.
.	12r	4e 4a	.
.	(12GGL	.	.
.	12C#'J)	.	.
=337	=337	=337	=337
2r	12r	4d) 4f#	4A
.	(12FF#L	.	.
.	12D'J)	.	.
.	8DD' 8AA'	12r	4r
.	.	(12ff#L	.
.	8r	.	.
.	.	12dd'J)	.
=338	=338	=338	=338
2r	8CC#' 8AA'	12r	2r
.	.	(12ggL	.
.	8r	.	.
.	.	12ee'J)	.
.	8AAA' 8AA'	12r	.
.	.	(12gL	.
.	8r	.	.
.	.	12e'J)	.
=339	=339	=339	=339
2r	8DD'L 8D'	12r	2r
.	.	(12dL	.
.	8DD'J 8D'	.	.
.	.	12f#'J)	.
.	4r	8dd'L 8ddd'	.
.	.	8dd'J 8ddd'	.
=:|!	=:|!	=:|!	=:|!
*-	*-	*-	*-
